chains/everclear/logo.svg

<svg width="150" height="150" viewBox="0 0 36 36" fill="none" xmlns="http://www.w3.org/2000/svg">
<path fill-rule="evenodd" clip-rule="evenodd" d="M16.5189 3.03765L21.0841 0.401912C21.6036 0.101966 22.0248 0.345121 22.0248 0.945014C22.0248 1.54491 21.6036 2.27437 21.0841 2.57432L16.5189 5.21006C15.9993 5.51001 15.5782 5.26685 15.5782 4.66696C15.5782 4.06706 15.9993 3.3376 16.5189 3.03765ZM16.5189 7.67877L21.0841 5.04303C21.6036 4.74308 22.0248 4.98623 22.0248 5.58613C22.0248 6.18602 21.6036 6.91549 21.0841 7.21543L16.5189 9.85117C15.9993 10.1511 15.5782 9.90796 15.5782 9.30807C15.5782 8.70818 15.9993 7.97871 16.5189 7.67877ZM30.8804 29.9521V24.6806C30.8804 24.0807 30.4593 23.3513 29.9397 23.0513C29.4202 22.7514 28.9991 22.9945 28.9991 23.5944V28.8659C28.9991 29.4658 29.4202 30.1953 29.9397 30.4952C30.4593 30.7952 30.8804 30.552 30.8804 29.9521ZM26.8609 22.3598V27.6313C26.8609 28.2312 26.4397 28.4744 25.9202 28.1744C25.4007 27.8745 24.9795 27.145 24.9795 26.5451V21.2736C24.9795 20.6737 25.4007 20.4306 25.9202 20.7305C26.4397 21.0305 26.8609 21.7599 26.8609 22.3598ZM26.4357 8.78987L18.4006 13.429C18.335 13.4668 18.2643 13.4999 18.1897 13.5282L16.5189 14.4929C15.9993 14.7928 15.5782 14.5497 15.5782 13.9498C15.5782 13.3499 15.9993 12.6204 16.5189 12.3205L21.0841 9.68474C21.1497 9.64688 21.2137 9.61767 21.2755 9.59674L24.5544 7.70366C25.0739 7.40372 25.9162 7.40372 26.4357 7.70366C26.9553 8.00361 26.9553 8.48992 26.4357 8.78987ZM29.9422 9.72346L34.5074 12.3592C35.027 12.6592 35.027 13.1455 34.5074 13.4454C33.9879 13.7454 33.1456 13.7454 32.6261 13.4454L28.0608 10.8097C27.5413 10.5097 27.5413 10.0234 28.0608 9.72346C28.5804 9.42352 29.4227 9.42352 29.9422 9.72346ZM30.4879 14.68L25.9227 12.0443C25.4031 11.7443 24.5608 11.7443 24.0413 12.0443C23.5218 12.3442 23.5218 12.8305 24.0413 13.1305L28.6065 15.7662C29.1261 16.0662 29.9684 16.0662 30.4879 15.7662C31.0074 15.4663 31.0074 14.98 30.4879 14.68ZM26.4686 17.0005L21.9034 14.3648C21.3839 14.0648 20.5415 14.0648 20.022 14.3648C19.5025 14.6647 19.5025 15.1511 20.022 15.451L21.8482 16.5053C21.8655 16.5164 21.883 16.5271 21.9006 16.5372L29.9357 21.1763C30.4553 21.4763 30.8764 21.2331 30.8764 20.6332C30.8764 20.0333 30.4553 19.3039 29.9357 19.0039L26.5196 17.0316C26.5032 17.0211 26.4862 17.0107 26.4686 17.0005ZM22.841 20.0392L22.841 25.3107C22.841 25.3868 22.8342 25.4572 22.8214 25.5214V29.3066C22.8214 29.9065 22.4002 30.636 21.8807 30.9359C21.3611 31.2359 20.94 30.9927 20.94 30.3928V21.1146C20.94 21.0385 20.9468 20.9603 20.9597 20.8812V18.953C20.9597 18.3531 21.3808 18.11 21.9003 18.4099C22.4199 18.7099 22.841 19.4393 22.841 20.0392ZM18.3777 32.9632L13.8125 35.5989C13.293 35.8989 12.8718 35.6557 12.8718 35.0558C12.8718 34.456 13.293 33.7265 13.8125 33.4265L18.3777 30.7908C18.8973 30.4909 19.3184 30.734 19.3184 31.3339C19.3184 31.9338 18.8973 32.6633 18.3777 32.9632ZM13.8125 30.9573L18.3777 28.3216C18.8973 28.0217 19.3184 27.2922 19.3184 26.6923C19.3184 26.0924 18.8973 25.8493 18.3777 26.1492L13.8125 28.7849C13.293 29.0849 12.8718 29.8144 12.8718 30.4142C12.8718 31.0141 13.293 31.2573 13.8125 30.9573ZM19.3184 22.0507C19.3184 22.5592 19.0157 23.1609 18.607 23.5151C18.5473 23.5786 18.471 23.6382 18.378 23.6919L10.3428 28.331C9.82331 28.631 8.98099 28.631 8.46147 28.331C7.94195 28.0311 7.94195 27.5448 8.46147 27.2448L13.6716 24.2367C13.7176 24.2022 13.7646 24.1709 13.8125 24.1433L18.3777 21.5076C18.8973 21.2076 19.3184 21.4508 19.3184 22.0507ZM0.389642 23.6753L4.95488 26.3111C5.4744 26.611 6.31671 26.611 6.83624 26.3111C7.35576 26.0111 7.35576 25.5248 6.83624 25.2249L2.271 22.5891C1.75148 22.2892 0.909165 22.2892 0.389642 22.5891C-0.129881 22.8891 -0.129881 23.3754 0.389642 23.6753ZM8.97441 23.9903L4.40917 21.3545C3.88965 21.0546 3.88965 20.5683 4.40917 20.2683C4.9287 19.9684 5.77101 19.9684 6.29053 20.2683L10.8558 22.9041C11.3753 23.204 11.3753 23.6903 10.8558 23.9903C10.3362 24.2902 9.49393 24.2902 8.97441 23.9903ZM4.98077 14.8582L13.0159 19.4973C13.0653 19.5258 13.1138 19.5582 13.1612 19.594L14.8751 20.5835C15.3946 20.8834 15.3946 21.3698 14.8751 21.6697C14.3555 21.9697 13.5132 21.9697 12.9937 21.6697L8.42847 19.034C8.37907 19.0054 8.33436 18.9752 8.29436 18.9437L4.98077 17.0306C4.46125 16.7306 4.04009 16.0012 4.04009 15.4013C4.04009 14.8014 4.46125 14.5582 4.98077 14.8582ZM4.03618 11.3539L4.03618 6.08245C4.03618 5.48255 4.45734 5.2394 4.97686 5.53934C5.49639 5.83929 5.91754 6.56876 5.91754 7.16865V12.4401C5.91754 13.04 5.49639 13.2832 4.97686 12.9832C4.45734 12.6833 4.03618 11.9538 4.03618 11.3539ZM8.05571 8.40325V13.6747C8.05571 14.2746 8.47687 15.0041 8.99639 15.304C9.51592 15.604 9.93707 15.3608 9.93707 14.7609V9.48945C9.93707 8.88956 9.51592 8.16009 8.99639 7.86015C8.47687 7.5602 8.05571 7.80335 8.05571 8.40325ZM13.9566 5.6078V11.7813L12.0752 15.9722V6.694C12.0752 6.09411 12.4964 5.36465 13.0159 5.0647C13.5354 4.76475 13.9566 5.00791 13.9566 5.6078ZM13.9566 11.7813L12.0756 16.0015C12.0783 16.6003 12.4984 17.326 13.0163 17.6249C13.5358 17.9249 13.9569 17.6817 13.9569 17.0818V11.8104C13.9569 11.8007 13.9568 11.791 13.9566 11.7813Z" fill="white"/>
</svg>

<svg xmlns="http://www.w3.org/2000/svg" width="150" height="150" fill="none" viewBox="-0.5 0 36 36"><path fill="#fff" fill-rule="evenodd" d="M16.519 3.038 21.084.402c.52-.3.94-.057.94.543 0 .6-.42 1.33-.94 1.63L16.52 5.21c-.52.3-.94.057-.94-.543 0-.6.42-1.33.94-1.63Zm0 4.64 4.565-2.635c.52-.3.94-.057.94.543 0 .6-.42 1.33-.94 1.63L16.52 9.85c-.52.3-.94.057-.94-.543 0-.6.42-1.33.94-1.63ZM30.88 29.953v-5.271c0-.6-.42-1.33-.94-1.63-.52-.3-.94-.056-.94.543v5.272c0 .6.42 1.33.94 1.63.52.3.94.056.94-.544Zm-4.02-7.592v5.271c0 .6-.42.843-.94.543-.52-.3-.94-1.029-.94-1.629v-5.271c0-.6.42-.843.94-.544.52.3.94 1.03.94 1.63Zm-.424-13.57L18.4 13.429a1.46 1.46 0 0 1-.211.1l-1.671.964c-.52.3-.94.057-.94-.543 0-.6.42-1.33.94-1.63l4.565-2.635a1.08 1.08 0 0 1 .192-.088l3.278-1.893c.52-.3 1.362-.3 1.882 0 .52.3.52.786 0 1.086Zm3.506.933 4.565 2.636c.52.3.52.787 0 1.086-.52.3-1.361.3-1.88 0L28.06 10.81c-.52-.3-.52-.787 0-1.087.52-.3 1.362-.3 1.881 0Zm.546 4.957-4.565-2.636c-.52-.3-1.362-.3-1.882 0-.52.3-.52.787 0 1.086l4.566 2.636c.52.3 1.361.3 1.88 0 .52-.3.52-.786 0-1.086ZM26.468 17l-4.565-2.635c-.52-.3-1.361-.3-1.881 0s-.52.786 0 1.086l1.826 1.054.053.032 8.035 4.64c.52.3.94.056.94-.544 0-.6-.42-1.33-.94-1.63l-3.416-1.971a1.35 1.35 0 0 0-.051-.032Zm-3.627 3.04v5.27c0 .077-.007.147-.02.211v3.786c0 .6-.42 1.329-.94 1.629-.52.3-.941.057-.941-.543v-9.278c0-.076.007-.155.02-.234v-1.928c0-.6.42-.843.94-.543.52.3.941 1.03.941 1.63Zm-4.463 12.923L13.812 35.6c-.519.3-.94.057-.94-.543 0-.6.421-1.33.94-1.63l4.566-2.635c.52-.3.94-.057.94.543 0 .6-.42 1.33-.94 1.63Zm-4.566-2.006 4.566-2.635c.52-.3.94-1.03.94-1.63 0-.6-.42-.843-.94-.543l-4.566 2.636c-.519.3-.94 1.03-.94 1.63 0 .6.421.842.94.542Zm5.506-8.906c0 .508-.302 1.11-.711 1.464a.995.995 0 0 1-.229.177l-8.035 4.639c-.52.3-1.362.3-1.882 0-.519-.3-.519-.786 0-1.086l5.21-3.008c.047-.035.094-.066.142-.094l4.565-2.635c.52-.3.94-.057.94.543ZM.39 23.675l4.565 2.636c.52.3 1.362.3 1.881 0 .52-.3.52-.786 0-1.086l-4.565-2.636c-.52-.3-1.362-.3-1.881 0-.52.3-.52.786 0 1.086Zm8.584.315L4.41 21.355c-.52-.3-.52-.787 0-1.087.52-.3 1.362-.3 1.882 0l4.565 2.636c.52.3.52.786 0 1.086-.52.3-1.362.3-1.882 0Zm-3.993-9.132 8.035 4.64c.05.028.098.06.145.096l1.714.99c.52.3.52.786 0 1.086-.52.3-1.362.3-1.881 0l-4.566-2.636a1.139 1.139 0 0 1-.134-.09L4.981 17.03c-.52-.3-.94-1.03-.94-1.63 0-.6.42-.843.94-.543Zm-.945-3.504V6.082c0-.6.421-.843.94-.543.52.3.942 1.03.942 1.63v5.271c0 .6-.422.843-.941.543-.52-.3-.94-1.03-.94-1.63Zm4.02-2.95v5.27c0 .6.42 1.33.94 1.63.52.3.941.057.941-.543V9.489c0-.6-.421-1.329-.94-1.629-.52-.3-.941-.057-.941.543Zm5.9-2.796v6.173l-1.88 4.191V6.694c0-.6.42-1.33.94-1.63.52-.3.94-.056.94.544Zm0 6.173-1.88 4.22c.002.6.422 1.325.94 1.624.52.3.94.057.94-.543V11.78Z" clip-rule="evenodd"/></svg>
